src/assets/icons/user.svg

<svg widh="100%" height="100%" viewBox="0 0 24 24" fill="current"
  xmlns="http://www.w3.org/2000/svg">
  <path fill-rule="evenodd" clip-rule="evenodd" d="M0.75 12C0.75 5.78679 5.78679 0.75 12 0.75C18.2132 0.75 23.25 5.78679 23.25 12C23.25 18.2132 18.2132 23.25 12 23.25C5.78679 23.25 0.75 18.2132 0.75 12ZM12 2.25C6.61522 2.25 2.25 6.61522 2.25 12C2.25 17.3848 6.61522 21.75 12 21.75C17.3848 21.75 21.75 17.3848 21.75 12C21.75 6.61522 17.3848 2.25 12 2.25Z"/>
  <path fill-rule="evenodd" clip-rule="evenodd" d="M7.5 9.75C7.5 7.26474 9.51474 5.25 12 5.25C14.4853 5.25 16.5 7.26474 16.5 9.75C16.5 12.2353 14.4853 14.25 12 14.25C9.51474 14.25 7.5 12.2353 7.5 9.75ZM12 6.75C10.3432 6.75 9 8.09316 9 9.75C9 11.4068 10.3432 12.75 12 12.75C13.6568 12.75 15 11.4068 15 9.75C15 8.09316 13.6568 6.75 12 6.75Z"/>
  <path fill-rule="evenodd" clip-rule="evenodd" d="M12 14.325C8.71803 14.325 5.97551 16.3048 4.73673 19.1265C4.57022 19.5058 4.12778 19.6783 3.74851 19.5117C3.36924 19.3452 3.19676 18.9028 3.36327 18.5235C4.82449 15.1952 8.08198 12.825 12 12.825C15.9078 12.825 19.2534 15.1869 20.6428 18.5377C20.8015 18.9204 20.6199 19.3592 20.2373 19.5178C19.8546 19.6765 19.4158 19.4949 19.2572 19.1123C18.0966 16.3131 15.2922 14.325 12 14.325Z"/>
</svg>

<svg xmlns="http://www.w3.org/2000/svg" fill="currentColor" viewBox="0 0 24 24">
  <path fill-rule="evenodd" d="M.75 12C.75 5.787 5.787.75 12 .75S23.25 5.787 23.25 12 18.213 23.25 12 23.25.75 18.213.75 12ZM12 2.25c-5.385 0-9.75 4.365-9.75 9.75s4.365 9.75 9.75 9.75 9.75-4.365 9.75-9.75S17.385 2.25 12 2.25Z" clip-rule="evenodd"/>
  <path fill-rule="evenodd" d="M7.5 9.75a4.5 4.5 0 1 1 9 0 4.5 4.5 0 0 1-9 0Zm4.5-3a3 3 0 1 0 0 6 3 3 0 0 0 0-6Z" clip-rule="evenodd"/>
  <path fill-rule="evenodd" d="M12 14.325c-3.282 0-6.024 1.98-7.263 4.802a.75.75 0 1 1-1.374-.604c1.461-3.328 4.719-5.698 8.637-5.698 3.908 0 7.253 2.362 8.643 5.713a.75.75 0 1 1-1.386.574c-1.16-2.799-3.965-4.787-7.257-4.787Z" clip-rule="evenodd"/>
</svg>
